X:0621
M:C
L:1/8
Q:1/4=120
K:G
d/c/| Bddg (b/a/g/f/) g2 |B<Gd>G       FA Bd/c/|   Bddg (b/a/g/f/) Tg2|cA   de/c/     BG Gd/c/|
      Bddg (b/a/g/f/) g>c|B<Gd>G       FA AB/c/|{e}d>cBA BGF>E        |FD   de/c/     BGG|]

